X: 31148
T: Paddy Fahey's
R: hornpipe
M: 4/4
K: Gmajor
|:B,A,|G,B,DG BAG=F|ECEG c3A|(3Bcd gd ^cdDF|cBAG FDCA,|
G,B,DG BAG=F|ECEG c3A|(3Bcd gd ^cdDF|AGGF G2:|
|:Bc|dggf gdBd|cA ag fgaf|gdBd fcAG|FAd^c d2dc|
(3Bcd BG cBcA|(3Bcd fa gfdc|(3Bcd gd ^cdDF|AGGF G2:|

